X: 42551
T: When Johnny Comes Marching Home
R: jig
M: 6/8
K: Aminor
|:E|A2 B c2 d|ecA ecA|G2 A B2 c|ded dBG|
A2 B c2 d|ecA Bcd|efe dcB|1 A3A z:|2 .A3 .G3|
EAA A2 B|c2 B c2 A|G3G2 E|G3G2 E|
EAA A2 B|c2 B c2 d|e3e2 c|e3e2c|
e2 e edc|d2 d d2 B|c2 c cBA|B2 B Bcd|
e3 d3|c3 B3|EAA A2 G|A3A z||

